X:786
T:The Humors of Bandon.
C:J. O'Neill.
B:O'Neill's Music of Ireland
N:O'Neill's - 786
Z:Transcribed by Stephen Foy (shf@access.digex.net)
Z:abc 1.6
Z:1/4 note ornaments (~) are trills.
Z:1/8 note ornaments (~) are mordents.
Z:Dal Segno above first and last bar-lines, fermata above repeat sign.
M:6/8
R:Jig
K:Em
D|DGG AGFG|~BAG FGA|Ad G AGFG|Bcd fef|\
~d2 e c2 d|dcAG FGA|cBAG ADF|G3 G2:|
||B|dgg ~gfg|fag f2 a|~g2 f d2 e|~f2 d c2 e|\
~d2 c A2 B|~c2 A G2 B|~A2 G F2 A|AGFE F2 E|]
